assets/svg/currencies/crypto/KNC.svg

<svg width="300" height="300" viewBox="0 0 300 300" fill="none" xmlns="http://www.w3.org/2000/svg">
<circle cx="150" cy="150" r="150" fill="#31CB9E"/>
<path fill-rule="evenodd" clip-rule="evenodd" d="M162.171 41.9148L217.828 82.8014C218.405 83.2077 218.867 83.7556 219.169 84.3922C219.472 85.0287 219.605 85.7325 219.556 86.4355C219.507 87.1385 219.277 87.817 218.889 88.4055C218.501 88.9939 217.967 89.4724 217.34 89.7948L134.879 135.333L155.201 44.2567C155.393 43.5568 155.754 42.9147 156.253 42.387C156.752 41.8594 157.373 41.4623 158.061 41.2309C158.75 40.9995 159.485 40.9409 160.201 41.0601C160.918 41.1794 161.594 41.4729 162.171 41.9148ZM219.554 196.614L138.136 150.035L219.554 103.424C220.204 103.021 220.951 102.801 221.715 102.785C222.48 102.77 223.235 102.96 223.901 103.336C224.566 103.711 225.119 104.259 225.5 104.921C225.881 105.583 226.077 106.336 226.068 107.099V192.906C226.073 193.668 225.874 194.418 225.493 195.079C225.112 195.74 224.561 196.287 223.898 196.664C223.235 197.042 222.483 197.236 221.719 197.227C220.956 197.219 220.209 197.007 219.554 196.614ZM162.106 258.123L217.828 217.236C218.413 216.826 218.882 216.273 219.19 215.63C219.499 214.987 219.637 214.275 219.591 213.563C219.546 212.851 219.317 212.163 218.929 211.565C218.54 210.966 218.004 210.477 217.372 210.145L134.879 164.607L155.201 255.683C155.37 256.391 155.712 257.046 156.196 257.589C156.681 258.132 157.293 258.546 157.978 258.794C158.662 259.043 159.398 259.117 160.118 259.011C160.839 258.906 161.522 258.623 162.106 258.188V258.123ZM138.136 49.4611L116.967 148.344L137.875 247.291C138.037 248.111 137.95 248.96 137.626 249.73C137.302 250.499 136.755 251.155 136.055 251.613C135.356 252.07 134.536 252.309 133.699 252.298C132.863 252.287 132.049 252.028 131.362 251.552L77.3979 210.145C76.0071 209.08 74.8852 207.704 74.1218 206.129C73.3584 204.553 72.9747 202.821 73.0013 201.07V95.6822C72.9949 93.9537 73.3884 92.2472 74.151 90.6956C74.9136 89.144 76.0248 87.7893 77.3979 86.7372L131.622 45.2C132.31 44.7246 133.124 44.4649 133.96 44.4542C134.796 44.4434 135.616 44.6821 136.316 45.1398C137.015 45.5974 137.562 46.2531 137.887 47.0229C138.211 47.7927 138.298 48.6417 138.136 49.4611Z" fill="white"/>
</svg>

<svg viewBox="0 0 300 300" fill="none" xmlns="http://www.w3.org/2000/svg">
    <circle cx="150" cy="150" r="150" fill="#31CB9E"/>
    <path fill-rule="evenodd" clip-rule="evenodd" d="M162.171 41.915L217.828 82.8a4.09 4.09 0 011.728 3.635 4.097 4.097 0 01-2.216 3.359l-82.461 45.538 20.322-91.076a4.424 4.424 0 012.86-3.026 4.435 4.435 0 014.11.684zm57.383 154.699l-81.418-46.579 81.418-46.611a4.271 4.271 0 015.946 1.497c.381.662.577 1.415.568 2.178v85.807a4.296 4.296 0 01-4.349 4.321 4.296 4.296 0 01-2.165-.613zm-57.448 61.509l55.722-40.887a4.151 4.151 0 001.763-3.673 4.153 4.153 0 00-2.219-3.418l-82.493-45.538 20.322 91.076a4.395 4.395 0 004.917 3.328 4.386 4.386 0 001.988-.823v-.065zm-23.97-208.662l-21.169 98.883 20.908 98.947a4.193 4.193 0 01-1.82 4.322 4.204 4.204 0 01-4.693-.061l-53.964-41.407A11.226 11.226 0 0173 201.07V95.682a11.21 11.21 0 014.397-8.945L131.622 45.2a4.208 4.208 0 016.265 1.823 4.19 4.19 0 01.249 2.438z" fill="#fff"/>
</svg>
